;MAKR SHAKR SRL
;SCRIBIT GCDODE CONVERSION TOOL
;GENERATED ON Mon Dec 31 2018 12:32:27 GMT+0100 (CET)
M17
M201 X2 Y2
M203 X2 Y2
M204 P2 T2
M205 X30 Y30
G4 P50
M92 X30.5 Y-30.5 Z22.2222
G4 P50
G92 X2284.42 Y2284.42 Z30
M400
G4 P50
;MARKER 1
G4 P50
G1 X1185.4 Y1185.67 
G4 P50
M400
G1 Z0 
G4 P50
G1 X1185.4 Y1185.67
G1 X1176.18 Y1194.93
G1 X1158.02 Y1213.54
G1 X1140.23 Y1232.24
G1 X1122.8 Y1251.02
G1 X1105.77 Y1269.85
G1 X1089.15 Y1288.73
G1 X1072.95 Y1307.64
G1 X1057.19 Y1326.57
G1 X1041.89 Y1345.51
G1 X1027.07 Y1364.44
G1 X1012.75 Y1383.36
G1 X998.95 Y1402.26
G1 X985.7 Y1421.13
G1 X973 Y1439.95
G1 X960.9 Y1458.73
G1 X949.4 Y1477.45
G1 X938.53 Y1496.11
G1 X928.31 Y1514.7
G1 X918.77 Y1533.21
G1 X909.91 Y1551.64
G1 X901.78 Y1569.98
G1 X894.37 Y1588.23
G1 X887.72 Y1606.39
G1 X881.83 Y1624.43
G1 X876.73 Y1642.38
G1 X872.42 Y1660.2
G1 X868.92 Y1677.92
G1 X866.24 Y1695.51
G1 X864.39 Y1712.97
G1 X863.36 Y1730.3
G1 X863.16 Y1747.5
G1 X863.8 Y1764.57
G1 X865.26 Y1781.49
G1 X867.56 Y1798.26
G1 X870.66 Y1814.89
G1 X874.58 Y1831.36
G1 X879.29 Y1847.68
G1 X884.78 Y1863.84
G1 X891.05 Y1879.84
G1 X898.06 Y1895.67
G1 X905.8 Y1911.33
G1 X914.26 Y1926.81
G1 X923.4 Y1942.13
G1 X933.22 Y1957.26
G1 X943.69 Y1972.21
G1 X954.78 Y1986.97
G1 X966.47 Y2001.55
G1 X978.75 Y2015.94
G1 X991.58 Y2030.13
G1 X1004.95 Y2044.13
G1 X1018.84 Y2057.92
G1 X1033.22 Y2071.51
G1 X1048.07 Y2084.9
G1 X1063.37 Y2098.08
G1 X1079.1 Y2111.05
G1 X1095.25 Y2123.81
G1 X1111.79 Y2136.35
G1 X1128.71 Y2148.67
G1 X1145.98 Y2160.77
G1 X1163.61 Y2172.65
G1 X1181.56 Y2184.3
G1 X1199.83 Y2195.73
G1 X1218.4 Y2206.93
G1 X1237.26 Y2217.89
G1 X1246.81 Y2223.27
G1 X1246.81 Y2223.27
G1 X1256.38 Y2228.62
G1 X1275.56 Y2238.99
G1 X1294.76 Y2249.01
G1 X1313.97 Y2258.68
G1 X1333.18 Y2267.99
G1 X1352.38 Y2276.97
G1 X1371.55 Y2285.6
G1 X1390.69 Y2293.89
G1 X1409.8 Y2301.85
G1 X1428.85 Y2309.48
G1 X1447.84 Y2316.77
G1 X1466.77 Y2323.74
G1 X1485.62 Y2330.39
G1 X1504.4 Y2336.71
G1 X1523.09 Y2342.72
G1 X1541.69 Y2348.41
G1 X1560.2 Y2353.78
G1 X1578.6 Y2358.84
G1 X1596.9 Y2363.59
G1 X1615.09 Y2368.03
G1 X1633.16 Y2372.17
G1 X1651.11 Y2375.99
G1 X1668.94 Y2379.52
G1 X1686.64 Y2382.74
G1 X1704.21 Y2385.66
G1 X1721.64 Y2388.28
G1 X1738.93 Y2390.59
G1 X1756.08 Y2392.61
G1 X1773.08 Y2394.33
G1 X1789.93 Y2395.75
G1 X1806.63 Y2396.87
G1 X1823.17 Y2397.7
G1 X1839.55 Y2398.22
G1 X1855.77 Y2398.45
G1 X1871.81 Y2398.39
G1 X1887.69 Y2398.02
G1 X1903.4 Y2397.35
G1 X1918.93 Y2396.39
G1 X1934.28 Y2395.12
G1 X1949.45 Y2393.56
G1 X1964.44 Y2391.69
G1 X1979.23 Y2389.52
G1 X1993.84 Y2387.04
G1 X2008.25 Y2384.26
G1 X2022.47 Y2381.18
G1 X2036.48 Y2377.78
G1 X2050.29 Y2374.08
G1 X2063.9 Y2370.06
G1 X2077.3 Y2365.73
G1 X2090.49 Y2361.08
G1 X2103.46 Y2356.11
G1 X2116.22 Y2350.83
G1 X2128.76 Y2345.22
G1 X2141.07 Y2339.28
G1 X2153.17 Y2333.02
G1 X2165.03 Y2326.42
G1 X2176.67 Y2319.49
G1 X2188.07 Y2312.23
G1 X2199.25 Y2304.62
G1 X2210.18 Y2296.67
G1 X2220.88 Y2288.37
G1 X2231.33 Y2279.72
G1 X2241.54 Y2270.72
G1 X2251.51 Y2261.36
G1 X2256.38 Y2256.52
G1 X2256.38 Y2256.52
G1 X2261.22 Y2251.65
G1 X2270.58 Y2241.68
G1 X2279.58 Y2231.47
G1 X2288.22 Y2221.01
G1 X2296.52 Y2210.31
G1 X2304.47 Y2199.38
G1 X2312.07 Y2188.2
G1 X2319.34 Y2176.8
G1 X2326.26 Y2165.16
G1 X2332.86 Y2153.29
G1 X2339.12 Y2141.2
G1 X2345.06 Y2128.88
G1 X2350.66 Y2116.34
G1 X2355.95 Y2103.58
G1 X2360.91 Y2090.61
G1 X2365.56 Y2077.42
G1 X2369.89 Y2064.02
G1 X2373.91 Y2050.41
G1 X2377.61 Y2036.6
G1 X2381.01 Y2022.58
G1 X2384.09 Y2008.36
G1 X2386.87 Y1993.95
G1 X2389.34 Y1979.34
G1 X2391.51 Y1964.55
G1 X2393.38 Y1949.56
G1 X2394.94 Y1934.39
G1 X2396.21 Y1919.04
G1 X2397.17 Y1903.51
G1 X2397.83 Y1887.8
G1 X2398.2 Y1871.92
G1 X2398.27 Y1855.87
G1 X2398.04 Y1839.65
G1 X2397.51 Y1823.27
G1 X2396.68 Y1806.73
G1 X2395.56 Y1790.03
G1 X2394.14 Y1773.18
G1 X2392.41 Y1756.18
G1 X2390.4 Y1739.03
G1 X2388.08 Y1721.73
G1 X2385.46 Y1704.3
G1 X2382.54 Y1686.73
G1 X2379.32 Y1669.03
G1 X2375.79 Y1651.2
G1 X2371.96 Y1633.25
G1 X2367.82 Y1615.18
G1 X2363.38 Y1596.99
G1 X2358.63 Y1578.69
G1 X2353.57 Y1560.29
G1 X2348.19 Y1541.78
G1 X2342.5 Y1523.18
G1 X2336.49 Y1504.48
G1 X2330.17 Y1485.71
G1 X2323.52 Y1466.85
G1 X2316.55 Y1447.92
G1 X2309.25 Y1428.93
G1 X2301.62 Y1409.88
G1 X2293.66 Y1390.78
G1 X2285.37 Y1371.63
G1 X2276.73 Y1352.46
G1 X2267.76 Y1333.26
G1 X2258.44 Y1314.05
G1 X2248.77 Y1294.84
G1 X2238.75 Y1275.64
G1 X2228.37 Y1256.46
G1 X2223.03 Y1246.89
G1 X2223.03 Y1246.89
G1 X2217.65 Y1237.34
G1 X2206.68 Y1218.48
G1 X2195.48 Y1199.91
G1 X2184.05 Y1181.64
G1 X2172.4 Y1163.69
G1 X2160.52 Y1146.06
G1 X2148.41 Y1128.79
G1 X2136.09 Y1111.87
G1 X2123.55 Y1095.33
G1 X2110.79 Y1079.19
G1 X2097.82 Y1063.46
G1 X2084.64 Y1048.16
G1 X2071.25 Y1033.31
G1 X2057.65 Y1018.94
G1 X2043.86 Y1005.05
G1 X2029.86 Y991.69
G1 X2015.67 Y978.86
G1 X2001.28 Y966.58
G1 X1986.7 Y954.89
G1 X1971.93 Y943.81
G1 X1956.98 Y933.34
G1 X1941.85 Y923.53
G1 X1926.54 Y914.39
G1 X1911.05 Y905.94
G1 X1895.39 Y898.2
G1 X1879.55 Y891.2
G1 X1863.56 Y884.94
G1 X1847.4 Y879.45
G1 X1831.08 Y874.74
G1 X1814.6 Y870.84
G1 X1797.98 Y867.73
G1 X1781.2 Y865.45
G1 X1764.28 Y863.99
G1 X1747.22 Y863.36
G1 X1730.02 Y863.56
G1 X1712.68 Y864.59
G1 X1695.22 Y866.45
G1 X1677.63 Y869.14
G1 X1659.91 Y872.64
G1 X1642.09 Y876.95
G1 X1624.14 Y882.06
G1 X1606.1 Y887.95
G1 X1587.94 Y894.61
G1 X1569.69 Y902.02
G1 X1551.35 Y910.16
G1 X1532.92 Y919.02
G1 X1514.41 Y928.56
G1 X1495.82 Y938.79
G1 X1477.16 Y949.66
G1 X1458.44 Y961.16
G1 X1439.66 Y973.27
G1 X1420.84 Y985.96
G1 X1401.98 Y999.22
G1 X1383.08 Y1013.02
G1 X1364.16 Y1027.34
G1 X1345.23 Y1042.16
G1 X1326.29 Y1057.46
G1 X1307.36 Y1073.22
G1 X1288.45 Y1089.42
G1 X1269.57 Y1106.04
G1 X1250.74 Y1123.08
G1 X1231.97 Y1140.5
G1 X1213.27 Y1158.29
G1 X1194.66 Y1176.45
G1 X1185.4 Y1185.67
G1 X1185.4 Y1185.67
G1 
M400
G4 P50
;MARKER 1
G1 Z30 
M400
G4 P50
G1 X1348.28 Y1215.9 
G4 P50
M400
G1 Z0 
G4 P50
G1 X1348.28 Y1215.9
G1 X1346.63 Y1217.5