;MAKR SHAKR SRL
;SCRIBIT GCDODE CONVERSION TOOL
;GENERATED ON Mon Dec 31 2018 12:32:27 GMT+0100 (CET)
M17
M201 X2 Y2
M203 X2 Y2
M204 P2 T2
M205 X30 Y30
G4 P50
M92 X30.5 Y-30.5 Z22.2222
G4 P50
G92 X2284.42 Y2284.42 Z30
M400
G4 P50
;MARKER 1
G4 P50
G1 X1185.4 Y1185.67 
G4 P50
M400
G1 Z0 
G4 P50
G1 X1185.4 Y1185.67
G1 X1176.18 Y1194.93
G1 X1158.02 Y1213.54
G1 X1140.23 Y1232.24
G1 X1122.8 Y1251.02
G1 X1105.77 Y1269.85
G1 X1089.15 Y1288.73
G1 X1072.95 Y1307.64
G1 X1057.19 Y1326.57
G1 X1041.89 Y1345.51
G1 X1027.07 Y1364.44
G1 X1012.75 Y1383.36
G1 X998.95 Y1402.26
G1 X985.7 Y1421.13
G1 X973 Y1439.95
G1 X960.9 Y1458.73
G1 X949.4 Y1477.45
G1 X938.53 Y1496.11
G1 X928.31 Y1514.7
G1 X918.77 Y1533.21
G1 X909.91 Y1551.64
G1 X901.78 Y1569.98
G1 X894.37 Y1588.23
G1 X887.72 Y1606.39
G1 X881.83 Y1624.43
G1 X876.73 Y1642.38
G1 X872.42 Y1660.2
G1 X868.92 Y1677.92
G1 X866.24 Y1695.51
G1 X864.39 Y1712.97
G1 X863.36 Y1730.3
G1 X863.16 Y1747.5
G1 X863.8 Y1764.57
G1 X865.26 Y1781.49
G1 X867.56 Y1798.26
G1 X870.66 Y1814.89
G1 X874.58 Y1831.36
G1 X879.29 Y1847.68
G1 X884.78 Y1863.84
G1 X891.05 Y1879.84
G1 X898.06 Y1895.67
G1 X905.8 Y1911.33
G1 X914.26 Y1926.81
G1 X923.4 Y1942.13
G1 X933.22 Y1957.26
G1 X943.69 Y1972.21
G1 X954.78 Y1986.97
G1 X966.47 Y2001.55
G1 X978.75 Y2015.94
G1 X991.58 Y2030.13
G1 X1004.95 Y2044.13
G1 X1018.84 Y2057.92
G1 X1033.22 Y2071.51
G1 X1048.07 Y2084.9
G1 X1063.37 Y2098.08
G1 X1079.1 Y2111.05
G1 X1095.25 Y2123.81
G1 X1111.79 Y2136.35
G1 X1128.71 Y2148.67
G1 X1145.98 Y2160.77
G1 X1163.61 Y2172.65
G1 X1181.56 Y2184.3
G1 X1199.83 Y2195.73
G1 X1218.4 Y2206.93
G1 X1237.26 Y2217.89
G1 X1246.81 Y2223.27
G1 X1246.81 Y2223.27
G1 X1256.38 Y2228.62
G1 X1275.56 Y2238.99
G1 X1294.76 Y2249.01
G1 X1313.97 Y2258.68
G1 X1333.18 Y2267.99
G1 X1352.38 Y2276.97
G1 X1371.55 Y2285.6
G1 X1390.69 Y2293.89
G1 X1409.8 Y2301.85
G1 X1428.85 Y2309.48
G1 X1447.84 Y2316.77
G1 X1466.77 Y2323.74
G1 X1485.62 Y2330.39
G1 X1504.4 Y2336.71
G1 X1523.09 Y2342.72
G1 X1541.69 Y2348.41
G1 X1560.2 Y2353.78
G1 X1578.6 Y2358.84
G1 X1596.9 Y2363.59
G1 X1615.09 Y2368.03
G1 X1633.16 Y2372.17
G1 X1651.11 Y2375.99
G1 X1668.94 Y2379.52
G1 X1686.64 Y2382.74
G1 X1704.21 Y2385.66
G1 X1721.64 Y2388.28
G1 X1738.93 Y2390.59
G1 X1756.08 Y2392.61
G1 X1773.08 Y2394.33
G1 X1789.93 Y2395.75
G1 X1806.63 Y2396.87
G1 X1823.17 Y2397.7
G1 X1839.55 Y2398.22
G1 X1855.77 Y2398.45
G1 X1871.81 Y2398.39
G1 X1887.69 Y2398.02
G1 X1903.4 Y2397.35
G1 X1918.93 Y2396.39
G1 X1934.28 Y2395.12
G1 X1949.45 Y2393.56
G1 X1964.44 Y2391.69
G1 X1979.23 Y2389.52
G1 X1993.84 Y2387.04
G1 X2008.25 Y2384.26
G1 X2022.47 Y2381.18
G1 X2036.48 Y2377.78
G1 X2050.29 Y2374.08
G1 X2063.9 Y2370.06
G1 X2077.3 Y2365.73
G1 X2090.49 Y2361.08
G1 X2103.46 Y2356.11
G1 X2116.22 Y2350.83
G1 X2128.76 Y2345.22
G1 X2141.07 Y2339.28
G1 X2153.17 Y2333.02
G1 X2165.03 Y2326.42
G1 X2176.67 Y2319.49
G1 X2188.07 Y2312.23
G1 X2199.25 Y2304.62
G1 X2210.18 Y2296.67
G1 X2220.88 Y2288.37
G1 X2231.33 Y2279.72
G1 X2241.54 Y2270.72
G1 X2251.51 Y2261.36
G1 X2256.38 Y2256.52
G1 X2256.38 Y2256.52
G1 X2261.22 Y2251.65
G1 X2270.58 Y2241.68
G1 X2279.58 Y2231.47
G1 X2288.22 Y2221.01
G1 X2296.52 Y2210.31
G1 X2304.47 Y2199.38
G1 X2312.07 Y2188.2
G1 X2319.34 Y2176.8
G1 X2326.26 Y2165.16
G1 X2332.86 Y2153.29
G1 X2339.12 Y2141.2
G1 X2345.06 Y2128.88
G1 X2350.66 Y2116.34
G1 X2355.95 Y2103.58
G1 X2360.91 Y2090.61
G1 X2365.56 Y2077.42
G1 X2369.89 Y2064.02
G1 X2373.91 Y2050.41
G1 X2377.61 Y2036.6
G1 X2381.01 Y2022.58
G1 X2384.09 Y2008.36
G1 X2386.87 Y1993.95
G1 X2389.34 Y1979.34
G1 X2391.51 Y1964.55
G1 X2393.38 Y1949.56
G1 X2394.94 Y1934.39
G1 X2396.21 Y1919.04
G1 X2397.17 Y1903.51
G1 X2397.83 Y1887.8
G1 X2398.2 Y1871.92
G1 X2398.27 Y1855.87
G1 X2398.04 Y1839.65
G1 X2397.51 Y1823.27
G1 X2396.68 Y1806.73
G1 X2395.56 Y1790.03
G1 X2394.14 Y1773.18
G1 X2392.41 Y1756.18
G1 X2390.4 Y1739.03
G1 X2388.08 Y1721.73
G1 X2385.46 Y1704.3
G1 X2382.54 Y1686.73
G1 X2379.32 Y1669.03
G1 X2375.79 Y1651.2
G1 X2371.96 Y1633.25
G1 X2367.82 Y1615.18
G1 X2363.38 Y1596.99
G1 X2358.63 Y1578.69
G1 X2353.57 Y1560.29
G1 X2348.19 Y1541.78
G1 X2342.5 Y1523.18
G1 X2336.49 Y1504.48
G1 X2330.17 Y1485.71
G1 X2323.52 Y1466.85
G1 X2316.55 Y1447.92
G1 X2309.25 Y1428.93
G1 X2301.62 Y1409.88
G1 X2293.66 Y1390.78
G1 X2285.37 Y1371.63
G1 X2276.73 Y1352.46
G1 X2267.76 Y1333.26
G1 X2258.44 Y1314.05
G1 X2248.77 Y1294.84
G1 X2238.75 Y1275.64
G1 X2228.37 Y1256.46
G1 X2223.03 Y1246.89
G1 X2223.03 Y1246.89
G1 X2217.65 Y1237.34
G1 X2206.68 Y1218.48
G1 X2195.48 Y1199.91
G1 X2184.05 Y1181.64
G1 X2172.4 Y1163.69
G1 X2160.52 Y1146.06
G1 X2148.41 Y1128.79
G1 X2136.09 Y1111.87
G1 X2123.55 Y1095.33
G1 X2110.79 Y1079.19
G1 X2097.82 Y1063.46
G1 X2084.64 Y1048.16
G1 X2071.25 Y1033.31
G1 X2057.65 Y1018.94
G1 X2043.86 Y1005.05
G1 X2029.86 Y991.69
G1 X2015.67 Y978.86
G1 X2001.28 Y966.58
G1 X1986.7 Y954.89
G1 X1971.93 Y943.81
G1 X1956.98 Y933.34
G1 X1941.85 Y923.53
G1 X1926.54 Y914.39
G1 X1911.05 Y905.94
G1 X1895.39 Y898.2
G1 X1879.55 Y891.2
G1 X1863.56 Y884.94
G1 X1847.4 Y879.45
G1 X1831.08 Y874.74
G1 X1814.6 Y870.84
G1 X1797.98 Y867.73
G1 X1781.2 Y865.45
G1 X1764.28 Y863.99
G1 X1747.22 Y863.36
G1 X1730.02 Y863.56
G1 X1712.68 Y864.59
G1 X1695.22 Y866.45
G1 X1677.63 Y869.14
G1 X1659.91 Y872.64
G1 X1642.09 Y876.95
G1 X1624.14 Y882.06
G1 X1606.1 Y887.95
G1 X1587.94 Y894.61
G1 X1569.69 Y902.02
G1 X1551.35 Y910.16
G1 X1532.92 Y919.02
G1 X1514.41 Y928.56
G1 X1495.82 Y938.79
G1 X1477.16 Y949.66
G1 X1458.44 Y961.16
G1 X1439.66 Y973.27
G1 X1420.84 Y985.96
G1 X1401.98 Y999.22
G1 X1383.08 Y1013.02
G1 X1364.16 Y1027.34
G1 X1345.23 Y1042.16
G1 X1326.29 Y1057.46
G1 X1307.36 Y1073.22
G1 X1288.45 Y1089.42
G1 X1269.57 Y1106.04
G1 X1250.74 Y1123.08
G1 X1231.97 Y1140.5
G1 X1213.27 Y1158.29
G1 X1194.66 Y1176.45
G1 X1185.4 Y1185.67
G1 X1185.4 Y1185.67
G1 
M400
G4 P50
;MARKER 1
G1 Z30 
M400
G4 P50
G1 X1348.28 Y1215.9 
G4 P50
M400
G1 Z0 
G4 P50
G1 X1348.28 Y1215.9
G1 X1346.63 Y1217.5
G1 X1343.44 Y1220.75
G1 X1340.39 Y1224.04
G1 X1337.48 Y1227.37
G1 X1334.72 Y1230.73
G1 X1332.1 Y1234.14
G1 X1329.63 Y1237.58
G1 X1327.31 Y1241.06
G1 X1325.15 Y1244.57
G1 X1323.14 Y1248.12
G1 X1321.29 Y1251.7
G1 X1319.6 Y1255.32
G1 X1318.08 Y1258.97
G1 X1316.72 Y1262.66
G1 X1315.53 Y1266.37
G1 X1314.52 Y1270.12
G1 X1313.68 Y1273.9
G1 X1313.03 Y1277.72
G1 X1312.55 Y1281.57
G1 X1312.26 Y1285.45
G1 X1312.16 Y1289.36
G1 X1312.25 Y1293.31
G1 X1312.54 Y1297.29
G1 X1313.02 Y1301.31
G1 X1313.71 Y1305.37
G1 X1314.59 Y1309.46
G1 X1315.69 Y1313.59
G1 X1317 Y1317.76
G1 X1318.52 Y1321.97
G1 X1320.26 Y1326.22
G1 X1322.21 Y1330.52
G1 X1324.4 Y1334.86
G1 X1325.58 Y1337.05
G1 X1325.58 Y1337.05
G1 X1326.98 Y1339.62
G1 X1329.62 Y1344.83
G1 X1332.1 Y1350.11
G1 X1334.41 Y1355.46
G1 X1336.56 Y1360.89
G1 X1338.55 Y1366.37
G1 X1340.38 Y1371.93
G1 X1342.07 Y1377.54
G1 X1343.6 Y1383.21
G1 X1344.98 Y1388.94
G1 X1346.23 Y1394.71
G1 X1347.33 Y1400.54
G1 X1348.29 Y1406.42
G1 X1349.13 Y1412.35
G1 X1349.83 Y1418.32
G1 X1350.4 Y1424.33
G1 X1350.85 Y1430.38
G1 X1351.18 Y1436.48
G1 X1351.39 Y1442.61
G1 X1351.49 Y1448.78
G1 X1351.48 Y1454.98
G1 X1351.36 Y1461.22
G1 X1351 Y1470.64
G1 X1350.16 Y1483.3
G1 X1348.95 Y1496.07
G1 X1347.4 Y1508.95
G1 X1345.53 Y1521.93
G1 X1343.39 Y1535
G1 X1340.98 Y1548.14
G1 X1338.35 Y1561.36
G1 X1335.51 Y1574.64
G1 X1332.5 Y1587.99
G1 X1329.35 Y1601.39
G1 X1326.08 Y1614.83
G1 X1322.72 Y1628.31
G1 X1319.31 Y1641.83
G1 X1315.85 Y1655.37
G1 X1310.69 Y1675.72
G1 X1300.66 Y1716.45
G1 X1291.67 Y1757.04
G1 X1286.62 Y1783.92
G1 X1283.48 Y1803.94
G1 X1281.73 Y1817.21
G1 X1280.29 Y1830.4
G1 X1279.17 Y1843.51
G1 X1278.41 Y1856.53
G1 X1278.03 Y1869.45
G1 X1278.04 Y1882.25
G1 X1278.48 Y1894.94
G1 X1279.35 Y1907.5
G1 X1280.68 Y1919.93
G1 X1282.49 Y1932.22
G1 X1284.8 Y1944.36
G1 X1287.63 Y1956.34
G1 X1291 Y1968.16
G1 X1293.9 Y1976.9
G1 X1296 Y1982.68
G1 X1298.24 Y1988.42
G1 X1300.63 Y1994.11
G1 X1303.17 Y1999.75
G1 X1305.86 Y2005.35
G1 X1308.7 Y2010.9
G1 X1311.69 Y2016.4
G1 X1314.84 Y2021.86
G1 X1318.15 Y2027.26
G1 X1321.62 Y2032.62
G1 X1325.25 Y2037.92
G1 X1329.04 Y2043.18
G1 X1333 Y2048.38
G1 X1337.13 Y2053.54
G1 X1341.43 Y2058.64
G1 X1345.9 Y2063.7
G1 X1350.54 Y2068.7
G1 X1355.36 Y2073.65
G1 X1360.36 Y2078.55
G1 X1365.54 Y2083.4
G1 X1370.9 Y2088.2
G1 X1376.44 Y2092.94
G1 X1382.17 Y2097.64
G1 X1388.09 Y2102.29
G1 X1394.19 Y2106.89
G1 X1400.49 Y2111.44
G1 X1406.99 Y2115.94
G1 X1410.31 Y2118.17
G1 X1410.31 Y2118.17
G1 X1417.01 Y2122.6
G1 X1430.47 Y2131.23
G1 X1443.99 Y2139.58
G1 X1457.57 Y2147.66
G1 X1471.2 Y2155.47
G1 X1484.86 Y2163.01
G1 X1498.56 Y2170.28
G1 X1512.28 Y2177.28
G1 X1526.01 Y2184.02
G1 X1539.75 Y2190.5
G1 X1553.49 Y2196.72
G1 X1567.23 Y2202.69
G1 X1580.95 Y2208.39
G1 X1594.65 Y2213.84
G1 X1608.32 Y2219.04
G1 X1621.96 Y2223.99
G1 X1635.57 Y2228.69
G1 X1649.13 Y2233.14
G1 X1662.65 Y2237.34
G1 X1676.11 Y2241.29
G1 X1689.52 Y2245
G1 X1702.87 Y2248.46
G1 X1716.14 Y2251.68
G1 X1729.35 Y2254.66
G1 X1742.48 Y2257.39
G1 X1755.53 Y2259.88
G1 X1768.5 Y2262.13
G1 X1781.38 Y2264.14
G1 X1794.17 Y2265.91
G1 X1806.86 Y2267.44
G1 X1819.45 Y2268.73
G1 X1831.94 Y2269.78
G1 X1844.33 Y2270.59
G1 X1856.6 Y2271.15
G1 X1868.76 Y2271.48
G1 X1880.8 Y2271.57
G1 X1892.72 Y2271.41
G1 X1904.52 Y2271.02
G1 X1916.2 Y2270.38
G1 X1927.74 Y2269.5
G1 X1939.15 Y2268.37
G1 X1950.42 Y2267
G1 X1961.55 Y2265.39
G1 X1972.54 Y2263.53
G1 X1983.38 Y2261.42
G1 X1994.08 Y2259.06
G1 X2004.62 Y2256.45
G1 X2015.01 Y2253.6
G1 X2025.24 Y2250.49
G1 X2035.31 Y2247.12
G1 X2045.21 Y2243.5
G1 X2054.95 Y2239.62
G1 X2064.53 Y2235.49
G1 X2073.93 Y2231.09
G1 X2083.15 Y2226.43
G1 X2092.2 Y2221.51
G1 X2101.07 Y2216.32
G1 X2109.75 Y2210.86
G1 X2118.26 Y2205.12
G1 X2126.57 Y2199.12
G1 X2134.69 Y2192.84
G1 X2142.63 Y2186.28
G1 X2150.36 Y2179.44
G1 X2157.9 Y2172.32
G1 X2161.59 Y2168.64
G1 X2161.59 Y2168.64
G1 X2165.24 Y2164.91
G1 X2172.34 Y2157.23
G1 X2179.21 Y2149.28
G1 X2185.84 Y2141.07
G1 X2192.25 Y2132.61
G1 X2198.42 Y2123.9
G1 X2204.37 Y2114.95
G1 X2210.08 Y2105.78
G1 X2215.58 Y2096.38
G1 X2220.84 Y2086.77
G1 X2225.89 Y2076.94
G1 X2230.71 Y2066.92
G1 X2235.31 Y2056.7
G1 X2239.68 Y2046.29
G1 X2243.83 Y2035.69
G1 X2247.76 Y2024.92
G1 X2251.47 Y2013.99
G1 X2254.94 Y2002.88
G1 X2258.2 Y1991.63
G1 X2261.22 Y1980.22
G1 X2264.02 Y1968.66
G1 X2266.59 Y1956.97
G1 X2268.92 Y1945.14
G1 X2271.02 Y1933.19
G1 X2272.88 Y1921.11
G1 X2274.5 Y1908.92
G1 X2275.88 Y1896.62
G1 X2277.02 Y1884.22
G1 X2277.9 Y1871.72
G1 X2278.54 Y1859.12
G1 X2278.92 Y1846.44
G1 X2279.04 Y1833.68
G1 X2278.89 Y1820.84
G1 X2278.48 Y1807.93
G1 X2277.8 Y1794.95
G1 X2276.83 Y1781.92
G1 X2275.59 Y1768.83
G1 X2274.06 Y1755.69
G1 X2272.24 Y1742.52
G1 X2270.12 Y1729.3
G1 X2267.7 Y1716.06
G1 X2264.97 Y1702.79
G1 X2261.92 Y1689.5
G1 X2258.56 Y1676.21
G1 X2254.87 Y1662.91
G1 X2250.84 Y1649.61
G1 X2246.47 Y1636.32
G1 X2241.76 Y1623.05
G1 X2236.7 Y1609.81
G1 X2231.27 Y1596.6
G1 X2225.48 Y1583.44
G1 X2219.31 Y1570.33
G1 X2212.77 Y1557.28
G1 X2205.83 Y1544.3
G1 X2198.49 Y1531.41
G1 X2192.71 Y1521.8
G1 X2188.74 Y1515.43
G1 X2184.67 Y1509.09
G1 X2180.49 Y1502.77
G1 X2176.2 Y1496.49
G1 X2171.81 Y1490.24
G1 X2167.31 Y1484.02
G1 X2162.7 Y1477.85
G1 X2157.99 Y1471.7
G1 X2153.16 Y1465.6
G1 X2148.22 Y1459.55
G1 X2143.17 Y1453.53
G1 X2138 Y1447.57
G1 X2132.72 Y1441.65
G1 X2127.33 Y1435.79
G1 X2121.81 Y1429.98
G1 X2116.18 Y1424.22
G1 X2110.43 Y1418.52
G1 X2107.51 Y1415.7
G1 X2107.51 Y1415.7
G1 X2100.69 Y1409.18
G1 X2086.99 Y1396.31
G1 X2073.2 Y1383.67
G1 X2059.35 Y1371.27
G1 X2045.43 Y1359.11
G1 X2031.46 Y1347.2
G1 X2017.43 Y1335.55
G1 X2003.37 Y1324.18
G1 X1989.26 Y1313.09
G1 X1975.13 Y1302.28
G1 X1960.98 Y1291.78
G1 X1946.8 Y1281.58
G1 X1932.62 Y1271.69
G1 X1918.44 Y1262.13
G1 X1904.26 Y1252.89
G1 X1890.09 Y1244
G1 X1875.94 Y1235.44
G1 X1861.81 Y1227.23
G1 X1847.72 Y1219.38
G1 X1833.66 Y1211.89
G1 X1819.64 Y1204.76
G1 X1805.68 Y1198
G1 X1791.77 Y1191.61
G1 X1777.93 Y1185.6
G1 X1764.15 Y1179.97
G1 X1750.46 Y1174.71
G1 X1736.84 Y1169.83
G1 X1723.31 Y1165.33
G1 X1709.88 Y1161.21
G1 X1696.56 Y1157.47
G1 X1683.34 Y1154.1
G1 X1670.23 Y1151.11
G1 X1657.25 Y1148.49
G1 X1644.39 Y1146.24
G1 X1631.67 Y1144.35
G1 X1619.08 Y1142.82
G1 X1606.65 Y1141.65
G1 X1594.36 Y1140.81
G1 X1582.24 Y1140.32
G1 X1570.28 Y1140.16
G1 X1558.5 Y1140.33
G1 X1546.89 Y1140.82
G1 X1535.47 Y1141.61
G1 X1524.24 Y1142.7
G1 X1513.21 Y1144.09
G1 X1502.38 Y1145.76
G1 X1491.77 Y1147.7
G1 X1481.37 Y1149.9
G1 X1471.21 Y1152.36
G1 X1461.27 Y1155.07
G1 X1451.58 Y1158
G1 X1442.13 Y1161.16
G1 X1432.94 Y1164.54
G1 X1424.02 Y1168.12
G1 X1415.36 Y1171.9
G1 X1406.98 Y1175.86
G1 X1398.89 Y1180
G1 X1391.1 Y1184.31
G1 X1383.61 Y1188.79
G1 X1376.43 Y1193.41
G1 X1369.58 Y1198.18
G1 X1363.06 Y1203.08
G1 X1356.88 Y1208.11
G1 X1351.04 Y1213.27
G1 X1348.28 Y1215.9
G1 X1348.28 Y1215.9
M400
G4 P50
;MARKER 1
G1 Z30 
M400
G4 P50
G1 X1648.09 Y1455.09 
G4 P50
M400
G1 Z0 
G4 P50
G1 X1648.09 Y1455.09
G1 X1646.79 Y1456.26
G1 X1644.28 Y1458.75
G1 X1641.87 Y1461.42
G1 X1639.55 Y1464.28
G1 X1637.34 Y1467.32
G1 X1635.24 Y1470.55
G1 X1633.25 Y1473.96
G1 X1631.37 Y1477.57
G1 X1629.6 Y1481.37
G1 X1627.96 Y1485.36
G1 X1626.43 Y1489.54
G1 X1625.03 Y1493.93
G1 X1623.76 Y1498.51
G1 X1622.62 Y1503.29
G1 X1621.61 Y1508.27
G1 X1620.74 Y1513.46
G1 X1620.02 Y1518.85
G1 X1619.44 Y1524.45
G1 X1619 Y1530.26
G1 X1618.73 Y1536.28
G1 X1618.61 Y1542.51
G1 X1618.65 Y1548.96
G1 X1619 Y1559.01
G1 X1620.11 Y1573.22
G1 X1621.94 Y1588.33
G1 X1624.53 Y1604.35
G1 X1627.93 Y1621.3
G1 X1629.98 Y1630.17
G1 X1629.98 Y1630.17
G1 X1630.77 Y1633.58
G1 X1632.18 Y1640.36
G1 X1633.39 Y1647.12
G1 X1634.42 Y1653.84
G1 X1635.27 Y1660.53
G1 X1635.95 Y1667.18
G1 X1636.47 Y1673.8
G1 X1636.84 Y1680.39
G1 X1637.07 Y1686.95
G1 X1637.16 Y1693.48
G1 X1637.13 Y1699.97
G1 X1636.98 Y1706.44
G1 X1636.58 Y1716.08
G1 X1635.7 Y1728.83
G1 X1634.52 Y1741.47
G1 X1633.11 Y1753.99
G1 X1631.53 Y1766.4
G1 X1629.87 Y1778.71
G1 X1627.36 Y1796.97
G1 X1624.32 Y1820.95
G1 X1622.62 Y1838.63
G1 X1621.87 Y1850.29
G1 X1621.51 Y1861.85
G1 X1621.61 Y1873.29
G1 X1622.04 Y1881.8
G1 X1622.5 Y1887.43
G1 X1623.11 Y1893.04
G1 X1623.88 Y1898.62
G1 X1624.82 Y1904.17
G1 X1625.93 Y1909.69
G1 X1627.23 Y1915.18
G1 X1628.72 Y1920.64
G1 X1630.42 Y1926.07
G1 X1632.32 Y1931.47
G1 X1634.44 Y1936.84
G1 X1636.78 Y1942.18
G1 X1639.36 Y1947.49
G1 X1642.18 Y1952.78
G1 X1645.24 Y1958.03
G1 X1648.57 Y1963.26
G1 X1652.16 Y1968.46
G1 X1656.02 Y1973.64
G1 X1660.16 Y1978.79
G1 X1664.59 Y1983.92
G1 X1669.31 Y1989.03
G1 X1674.34 Y1994.12
G1 X1679.68 Y1999.19
G1 X1685.34 Y2004.24
G1 X1688.31 Y2006.76
G1 X1688.31 Y2006.76
G1 X1691.31 Y2009.27
G1 X1697.36 Y2014.17
G1 X1703.45 Y2018.93
G1 X1709.6 Y2023.56
G1 X1715.79 Y2028.05
G1 X1722.02 Y2032.41
G1 X1728.29 Y2036.63
G1 X1734.6 Y2040.71
G1 X1740.93 Y2044.66
G1 X1747.29 Y2048.48
G1 X1753.68 Y2052.16
G1 X1760.08 Y2055.71
G1 X1766.5 Y2059.12
G1 X1772.94 Y2062.4
G1 X1779.39 Y2065.55
G1 X1785.84 Y2068.57
G1 X1792.3 Y2071.45
G1 X1798.76 Y2074.21
G1 X1805.21 Y2076.83
G1 X1811.67 Y2079.32
G1 X1818.11 Y2081.68
G1 X1824.55 Y2083.9
G1 X1830.97 Y2086
G1 X1837.38 Y2087.97
G1 X1843.77 Y2089.8
G1 X1850.13 Y2091.5
G1 X1856.48 Y2093.07
G1 X1862.79 Y2094.51
G1 X1869.08 Y2095.82
G1 X1875.33 Y2097
G1 X1881.56 Y2098.04
G1 X1887.74 Y2098.96
G1 X1893.88 Y2099.74
G1 X1899.99 Y2100.39
G1 X1906.05 Y2100.9
G1 X1912.06 Y2101.29
G1 X1918.02 Y2101.54
G1 X1923.94 Y2101.66
G1 X1929.79 Y2101.64
G1 X1935.6 Y2101.49
G1 X1941.34 Y2101.21
G1 X1947.03 Y2100.79
G1 X1952.65 Y2100.24
G1 X1958.2 Y2099.55
G1 X1963.69 Y2098.72
G1 X1969.11 Y2097.76
G1 X1974.46 Y2096.66
G1 X1979.73 Y2095.42
G1 X1984.93 Y2094.04
G1 X1990.05 Y2092.52
G1 X1995.09 Y2090.87
G1 X2000.05 Y2089.07
G1 X2004.92 Y2087.13
G1 X2009.71 Y2085.05
G1 X2014.41 Y2082.83
G1 X2019.01 Y2080.46
G1 X2023.53 Y2077.95
G1 X2027.95 Y2075.29
G1 X2032.27 Y2072.48
G1 X2036.5 Y2069.53
G1 X2040.62 Y2066.43
G1 X2044.64 Y2063.18
G1 X2048.56 Y2059.78
G1 X2052.37 Y2056.23
G1 X2054.23 Y2054.39
G1 X2054.23 Y2054.39
G1 X2056.07 Y2052.53
G1 X2059.62 Y2048.72
G1 X2063.02 Y2044.8
G1 X2066.27 Y2040.78
G1 X2069.37 Y2036.65
G1 X2072.32 Y2032.42
G1 X2075.13 Y2028.1
G1 X2077.78 Y2023.68
G1 X2080.3 Y2019.16
G1 X2082.66 Y2014.55
G1 X2084.89 Y2009.86
G1 X2086.97 Y2005.07
G1 X2088.91 Y2000.2
G1 X2090.7 Y1995.24
G1 X2092.36 Y1990.2
G1 X2093.87 Y1985.08
G1 X2095.25 Y1979.88
G1 X2096.49 Y1974.6
G1 X2097.59 Y1969.26
G1 X2098.55 Y1963.84
G1 X2099.38 Y1958.35
G1 X2100.07 Y1952.79
G1 X2100.62 Y1947.17
G1 X2101.04 Y1941.48
G1 X2101.32 Y1935.74
G1 X2101.47 Y1929.94
G1 X2101.48 Y1924.08
G1 X2101.37 Y1918.16
G1 X2101.11 Y1912.2
G1 X2100.73 Y1906.19
G1 X2100.21 Y1900.13
G1 X2099.56 Y1894.03
G1 X2098.78 Y1887.88
G1 X2097.86 Y1881.7
G1 X2096.82 Y1875.47
G1 X2095.64 Y1869.22
G1 X2094.33 Y1862.93
G1 X2092.89 Y1856.62
G1 X2091.32 Y1850.27
G1 X2089.62 Y1843.91
G1 X2087.78 Y1837.52
G1 X2085.82 Y1831.11
G1 X2083.72 Y1824.69
G1 X2081.49 Y1818.25
G1 X2079.13 Y1811.81
G1 X2076.64 Y1805.35
G1 X2074.02 Y1798.9
G1 X2071.27 Y1792.44
G1 X2068.38 Y1785.98
G1 X2065.36 Y1779.52
G1 X2062.21 Y1773.08
G1 X2058.93 Y1766.64
G1 X2055.51 Y1760.22
G1 X2051.96 Y1753.82
G1 X2048.28 Y1747.43
G1 X2044.47 Y1741.07
G1 X2040.52 Y1734.74
G1 X2036.43 Y1728.43
G1 X2032.21 Y1722.16
G1 X2027.86 Y1715.93
G1 X2023.36 Y1709.74
G1 X2018.74 Y1703.6
G1 X2013.97 Y1697.5
G1 X2009.07 Y1691.45
G1 X2006.56 Y1688.46
G1 X2006.56 Y1688.46
G1 X2000.14 Y1680.84
G1 X1987.2 Y1665.75
G1 X1974.19 Y1650.85
G1 X1961.11 Y1636.19
G1 X1948 Y1621.79
G1 X1934.88 Y1607.69
G1 X1921.76 Y1593.93
G1 X1908.68 Y1580.55
G1 X1895.64 Y1567.57
G1 X1882.67 Y1555.04
G1 X1869.79 Y1542.99
G1 X1857.02 Y1531.44
G1 X1844.37 Y1520.44
G1 X1831.86 Y1510.01
G1 X1819.51 Y1500.19
G1 X1807.34 Y1491
G1 X1795.37 Y1482.48
G1 X1783.6 Y1474.66
G1 X1772.07 Y1467.56
G1 X1760.78 Y1461.2
G1 X1752.49 Y1456.97
G1 X1747.05 Y1454.38
G1 X1741.67 Y1452
G1 X1736.37 Y1449.82
G1 X1731.15 Y1447.85
G1 X1726 Y1446.09
G1 X1720.93 Y1444.54
G1 X1715.95 Y1443.21
G1 X1711.05 Y1442.1
G1 X1706.24 Y1441.22
G1 X1701.52 Y1440.56
G1 X1696.89 Y1440.13
G1 X1692.36 Y1439.92
G1 X1687.92 Y1439.96
G1 X1683.59 Y1440.23
G1 X1679.36 Y1440.74
G1 X1675.24 Y1441.49
G1 X1671.23 Y1442.48
G1 X1667.33 Y1443.72
G1 X1663.55 Y1445.22
G1 X1659.89 Y1446.96
G1 X1656.35 Y1448.96
G1 X1652.95 Y1451.21
G1 X1649.67 Y1453.73
G1 X1648.09 Y1455.09
G1 X1648.09 Y1455.09
M400
G4 P50
;MARKER 1
G1 Z30 
M400
G4 P50
G1 X1789.69 Y1789.87 
G4 P50
M400
G1 Z0 
G4 P50
G1 X1789.69 Y1789.87
G1 X1788.06 Y1791.55
G1 X1785 Y1795.05
G1 X1782.21 Y1798.72
G1 X1779.68 Y1802.55
G1 X1777.42 Y1806.52
G1 X1775.42 Y1810.64
G1 X1773.68 Y1814.88
G1 X1772.2 Y1819.24
G1 X1770.98 Y1823.71
G1 X1770.02 Y1828.27
G1 X1769.32 Y1832.92
G1 X1768.88 Y1837.64
G1 X1768.69 Y1842.44
G1 X1768.76 Y1847.29
G1 X1769.08 Y1852.18
G1 X1769.65 Y1857.12
G1 X1770.47 Y1862.08
G1 X1771.54 Y1867.06
G1 X1772.85 Y1872.06
G1 X1774.4 Y1877.05
G1 X1776.2 Y1882.03
G1 X1778.23 Y1887
G1 X1780.5 Y1891.94
G1 X1783.01 Y1896.84
G1 X1785.74 Y1901.7
G1 X1788.7 Y1906.5
G1 X1791.89 Y1911.25
G1 X1795.31 Y1915.92
G1 X1798.94 Y1920.52
G1 X1802.79 Y1925.03
G1 X1806.85 Y1929.44
G1 X1811.12 Y1933.75
G1 X1813.35 Y1935.86
G1 X1813.35 Y1935.86
G1 X1815.6 Y1937.94
G1 X1820.18 Y1941.93
G1 X1824.84 Y1945.7
G1 X1829.59 Y1949.25
G1 X1834.4 Y1952.6
G1 X1839.27 Y1955.72
G1 X1844.19 Y1958.64
G1 X1849.15 Y1961.34
G1 X1854.13 Y1963.82
G1 X1859.13 Y1966.09
G1 X1864.15 Y1968.13
G1 X1869.16 Y1969.97
G1 X1874.17 Y1971.58
G1 X1879.16 Y1972.98
G1 X1884.12 Y1974.15
G1 X1889.04 Y1975.11
G1 X1893.93 Y1975.84
G1 X1898.76 Y1976.35
G1 X1903.52 Y1976.63
G1 X1908.22 Y1976.69
G1 X1912.84 Y1976.53
G1 X1917.37 Y1976.13
G1 X1921.8 Y1975.5
G1 X1926.13 Y1974.65
G1 X1930.35 Y1973.56
G1 X1934.45 Y1972.23
G1 X1938.41 Y1970.67
G1 X1942.25 Y1968.87
G1 X1945.93 Y1966.82
G1 X1949.47 Y1964.54
G1 X1952.84 Y1962.01
G1 X1956.04 Y1959.23
G1 X1957.57 Y1957.74
G1 X1957.57 Y1957.74
G1 X1959.07 Y1956.21
G1 X1961.84 Y1953
G1 X1964.37 Y1949.63
G1 X1966.66 Y1946.1
G1 X1968.7 Y1942.41
G1 X1970.5 Y1938.58
G1 X1972.07 Y1934.61
G1 X1973.39 Y1930.51
G1 X1974.48 Y1926.29
G1 X1975.34 Y1921.96
G1 X1975.97 Y1917.53
G1 X1976.36 Y1913
G1 X1976.53 Y1908.39
G1 X1976.47 Y1903.69
G1 X1976.19 Y1898.92
G1 X1975.68 Y1894.1
G1 X1974.94 Y1889.21
G1 X1973.99 Y1884.29
G1 X1972.81 Y1879.33
G1 X1971.42 Y1874.34
G1 X1969.8 Y1869.33
G1 X1967.97 Y1864.32
G1 X1965.92 Y1859.3
G1 X1963.65 Y1854.3
G1 X1961.17 Y1849.32
G1 X1958.47 Y1844.36
G1 X1955.56 Y1839.44
G1 X1952.43 Y1834.57
G1 X1949.08 Y1829.75
G1 X1945.52 Y1825.01
G1 X1941.75 Y1820.34
G1 X1937.76 Y1815.76
G1 X1935.68 Y1813.51
G1 X1935.68 Y1813.51
G1 X1933.56 Y1811.28
G1 X1929.24 Y1807
G1 X1924.82 Y1802.93
G1 X1920.3 Y1799.08
G1 X1915.69 Y1795.44
G1 X1911.01 Y1792.03
G1 X1906.26 Y1788.84
G1 X1901.45 Y1785.88
G1 X1896.58 Y1783.15
G1 X1891.67 Y1780.64
G1 X1886.73 Y1778.38
G1 X1881.76 Y1776.35
G1 X1876.78 Y1774.56
G1 X1871.78 Y1773.01
G1 X1866.79 Y1771.7
G1 X1861.81 Y1770.64
G1 X1856.84 Y1769.83
G1 X1851.91 Y1769.26
G1 X1847.01 Y1768.95
G1 X1842.17 Y1768.88
G1 X1837.38 Y1769.08
G1 X1832.66 Y1769.52
G1 X1828.01 Y1770.23
G1 X1823.46 Y1771.19
G1 X1819 Y1772.41
G1 X1814.64 Y1773.89
G1 X1810.41 Y1775.62
G1 X1806.3 Y1777.62
G1 X1802.33 Y1779.88
G1 X1798.51 Y1782.41
G1 X1794.85 Y1785.19
G1 X1791.36 Y1788.24
G1 X1789.69 Y1789.87
G1 X1789.69 Y1789.87
M400
G4 P50
G1 Z30 
G92 Z0
G4 P1000
M400
M400
G4 P50
G1 X2284.42 Y2284.42
M18
;PRINT ENDED